svgs/duotone/game-board.svg

<svg xmlns="http://www.w3.org/2000/svg" viewBox="0 0 448 512"><!--! Font Awesome Pro 7.1.0 by @fontawesome - https://fontawesome.com License - https://fontawesome.com/license (Commercial License) Copyright 2025 Fonticons, Inc. --><path opacity=".4" fill="currentColor" d="M0 96L0 416c0 35.3 28.7 64 64 64l320 0c35.3 0 64-28.7 64-64l0-320c0-35.3-28.7-64-64-64L64 32C28.7 32 0 60.7 0 96zm64 0l320 0 0 320-320 0 0-320z"/><path fill="currentColor" d="M64 256l0 80 80 0 0-80-80 0zM384 416l0-80-80 0 0 80 80 0zm-240 0l80 0 0-80-80 0 0 80zM64 96l0 80 80 0 0-80-80 0zm160 80l-80 0 0 80 80 0 0-80zm0 80l0 80 80 0 0-80-80 0zm160 0l0-80-80 0 0 80 80 0zM304 96l-80 0 0 80 80 0 0-80z"/></svg>

<svg xmlns="http://www.w3.org/2000/svg" viewBox="0 0 448 512"><!--! Font Awesome Pro 6.7.2 by @fontawesome - https://fontawesome.com License - https://fontawesome.com/license (Commercial License) Copyright 2024 Fonticons, Inc. --><defs><style>.fa-secondary{opacity:.4}</style></defs><path class="fa-secondary" d="M0 96L0 416c0 35.3 28.7 64 64 64l320 0c35.3 0 64-28.7 64-64l0-320c0-35.3-28.7-64-64-64L64 32C28.7 32 0 60.7 0 96zm64 0l80 0 80 0 80 0 80 0 0 80 0 80 0 80 0 80-80 0-80 0-80 0-80 0 0-80 0-80 0-80 0-80z"/><path class="fa-primary" d="M64 256l0 80h80V256H64zM384 416l0-80H304v80h80zm-240 0h80V336H144v80zM64 96l0 80h80V96H64zm160 80H144v80h80V176zm0 80v80h80V256H224zm160 0V176H304v80h80zM304 96H224v80h80V96z"/></svg>
